src/images/bee.inline.svg

<svg width="441" height="316" viewBox="0 0 441 316" fill="none" xmlns="http://www.w3.org/2000/svg">
<path d="M205.373 57.561C203.343 57.5608 201.395 56.7541 199.959 55.3184C198.524 53.8827 197.716 51.9353 197.716 49.9048C197.706 40.7336 194.059 31.9413 187.574 25.4561C181.089 18.9708 172.296 15.3226 163.125 15.312C161.095 15.312 159.147 14.5051 157.711 13.0693C156.276 11.6336 155.469 9.68626 155.469 7.65576C155.469 5.62526 156.276 3.67797 157.711 2.24219C159.147 0.806409 161.095 0 163.125 0C176.354 0.0161426 189.037 5.27873 198.392 14.6333C207.746 23.9879 213.009 36.6706 213.025 49.8999C213.026 51.9305 212.221 53.8783 210.786 55.3149C209.351 56.7516 207.404 57.5597 205.373 57.561Z" fill="#231F20"/>
<path d="M237.144 57.561C235.113 57.5608 233.166 56.7541 231.73 55.3184C230.294 53.8827 229.487 51.9353 229.486 49.9048C229.503 36.6744 234.767 23.9909 244.123 14.6362C253.479 5.28158 266.163 0.0197013 279.394 0.00488281C281.424 0.00488281 283.371 0.81178 284.807 2.24756C286.243 3.68334 287.049 5.63064 287.049 7.66113C287.049 9.69163 286.243 11.6389 284.807 13.0747C283.371 14.5105 281.424 15.3169 279.394 15.3169C270.222 15.3272 261.429 18.9752 254.944 25.4604C248.459 31.9457 244.811 40.7387 244.8 49.9102C244.799 51.9399 243.991 53.8856 242.556 55.3203C241.12 56.755 239.173 57.561 237.144 57.561V57.561Z" fill="#231F20"/>
<path d="M119.67 258.261C91.6874 268.29 68.2036 267.273 52.6416 264.261C31.2066 260.117 18.7183 251.003 16.7973 247.046C15.7803 244.946 16.6084 244.346 17.3974 243.851L114.451 187.632V169.932L9.63033 230.651L9.45259 230.751C1.35259 235.74 -1.23144 244.971 3.01656 253.723C8.31656 264.636 27.0874 274.907 49.7294 279.286C57.9741 280.866 66.3509 281.656 74.7456 281.644C91.2266 281.644 111.145 278.655 133.168 269.411L129.255 267.152C125.438 264.939 122.164 261.901 119.67 258.261V258.261Z" fill="#231F20"/>
<path d="M432.099 230.762C432.039 230.726 431.98 230.691 431.92 230.662L327.1 169.943V187.643L424.152 243.862C424.947 244.354 425.777 244.962 424.758 247.057C422.837 251.014 410.349 260.128 388.914 264.272C373.354 267.28 349.873 268.298 321.895 258.272C319.42 261.901 316.169 264.935 312.377 267.154L308.412 269.442C330.425 278.678 350.33 281.663 366.806 281.663C375.201 281.675 383.577 280.885 391.821 279.305C414.463 274.926 433.235 264.655 438.534 253.742C442.783 244.982 440.196 235.751 432.099 230.762Z" fill="#231F20"/>
<path d="M312.345 127.317L235.588 83.0171C231.097 80.4149 225.999 79.044 220.808 79.043C215.618 79.0419 210.519 80.4104 206.027 83.0107L129.25 127.321C124.765 129.917 121.039 133.644 118.443 138.129C115.847 142.615 114.473 147.702 114.455 152.884V241.545C114.468 246.736 115.841 251.833 118.438 256.328C121.035 260.823 124.764 264.559 129.255 267.163L205.992 311.451C210.485 314.059 215.586 315.433 220.78 315.436C225.975 315.439 231.077 314.07 235.573 311.468L312.373 267.146C316.844 264.53 320.553 260.792 323.136 256.302C325.718 251.812 327.083 246.726 327.096 241.546V152.885C327.078 147.707 325.707 142.624 323.12 138.14C320.532 133.655 316.818 129.924 312.345 127.317V127.317ZM136.915 140.578L161.75 126.245H279.85L304.656 140.561C306.813 141.817 308.606 143.615 309.855 145.776C311.105 147.938 311.768 150.388 311.78 152.885V172.323H129.769V152.888C129.781 150.391 130.447 147.94 131.701 145.78C132.954 143.62 134.752 141.827 136.915 140.578ZM304.692 253.903L280.111 268.089H161.495L136.923 253.908C134.754 252.652 132.952 250.85 131.697 248.681C130.442 246.512 129.777 244.052 129.769 241.546V222.015H311.785V241.546C311.779 244.045 311.122 246.498 309.878 248.666C308.634 250.833 306.847 252.638 304.692 253.903V253.903Z" fill="#231F20"/>
</svg>

<svg width="441" height="316" fill="none" xmlns="http://www.w3.org/2000/svg"><path d="M205.373 57.561a7.66 7.66 0 0 1-7.657-7.656 34.629 34.629 0 0 0-34.591-34.593 7.658 7.658 0 0 1-7.656-7.656A7.659 7.659 0 0 1 163.125 0a49.963 49.963 0 0 1 49.9 49.9 7.656 7.656 0 0 1-7.652 7.661zM237.144 57.561a7.658 7.658 0 0 1-7.658-7.656 49.965 49.965 0 0 1 49.908-49.9 7.656 7.656 0 0 1 0 15.312A34.632 34.632 0 0 0 244.8 49.91a7.656 7.656 0 0 1-7.656 7.651zM119.67 258.261c-27.983 10.029-51.466 9.012-67.028 6-21.435-4.144-33.924-13.258-35.845-17.215-1.017-2.1-.189-2.7.6-3.195l97.054-56.219v-17.7L9.631 230.651l-.178.1c-8.1 4.989-10.684 14.22-6.436 22.972 5.3 10.913 24.07 21.184 46.712 25.563a131.913 131.913 0 0 0 25.017 2.358c16.48 0 36.399-2.989 58.422-12.233l-3.913-2.259a29.643 29.643 0 0 1-9.585-8.891zM432.099 230.762a2.294 2.294 0 0 0-.179-.1L327.1 169.943v17.7l97.052 56.219c.795.492 1.625 1.1.606 3.195-1.921 3.957-14.409 13.071-35.844 17.215-15.56 3.008-39.041 4.026-67.019-6a29.642 29.642 0 0 1-9.518 8.882l-3.965 2.288c22.013 9.236 41.918 12.221 58.394 12.221 8.395.012 16.771-.778 25.015-2.358 22.642-4.379 41.414-14.65 46.713-25.563 4.249-8.76 1.662-17.991-6.435-22.98z" fill="#231F20"/><path d="m312.345 127.317-76.757-44.3a29.491 29.491 0 0 0-29.561-.006l-76.777 44.31a29.65 29.65 0 0 0-14.795 25.563v88.661a29.699 29.699 0 0 0 14.8 25.618l76.737 44.288a29.49 29.49 0 0 0 29.581.017l76.8-44.322a29.75 29.75 0 0 0 14.723-25.6v-88.661a29.713 29.713 0 0 0-14.751-25.568zm-175.43 13.261 24.835-14.333h118.1l24.806 14.316a14.34 14.34 0 0 1 7.124 12.324v19.438H129.769v-19.435a14.295 14.295 0 0 1 7.146-12.31zm167.777 113.325-24.581 14.186H161.495l-24.572-14.181a14.339 14.339 0 0 1-7.154-12.362v-19.531h182.016v19.531a14.373 14.373 0 0 1-7.093 12.357z" fill="#231F20"/></svg>
